X:1
T:Title
%%score { ( 1 4 5 ) | ( 2 3 6 7 ) }
L:1/8
Q:1/4=86
M:4/4
K:C
V:1 treble nm="Grand Piano"
V:4 treble 
V:5 treble 
V:2 bass 
V:3 bass 
V:6 bass 
V:7 bass 
V:1
 E4 F4 | z G^FG ABcd | z F z F z2 A,2 | z AGA GDEF | z4 D4 | [CA][DB][Ec][CEA] [Dd]3 [DB] | %6
w: Chas.~H.~Gabriel *||||||
 [B,G][CA][DB][^Fc] [FB]3 [FA] | [G,G]-[G,EG-] [B,DFG]4 z2 |[M:3/4][Q:1/4=96] c2 A2 c2 | %9
w: |||
 .[FB]2 [B,DF]3 [FA] | .G2 AB cd | [ce]6 | c2 A2 c2 | .[FB]2 [B,DF]3 [FA] | .G2 AB cd | ea ga ge | %16
w: |||||||
 c3 c cc | c4 c2 | c4- [C=EGc-]2 |[M:4/4] [C_EAc]6 C2 |[M:3/4] E2 A4 | G4 E2 | [B,D]4 C2 | C6 |] %24
w: ||||||||
V:2
 C4 D4 | C6 G,2 | [C,C][D,B,][E,C][F,B,] [C,C]2 C,2 | z4 G, G,3 | %4
 C,E,D,C, z[K:treble] E^F[K:bass]E, | z8 | z4 z2 C2 | z C G,,4 z2 |[M:3/4] [C,G,]6 | %9
 z[K:treble] A G,2[K:bass] z B, | z6[K:treble] | z a ga ge | [C,E,G,]6 | %13
 z[K:treble] A G,2[K:bass] z B, | z[K:treble] G- G4- | G4 z2 | [_B,,_B,]6 | [A,,A,]6 | %18
 [^G,,^G,]4 [=G,,=G,]2 |[M:4/4] [^F,,^F,]6 z2 |[M:3/4] z2 C4- | C6 | [G,,F,]4 [C,E,G,]2 | %23
 [C,E,G,]6 |] %24
V:3
 [C,G,]8 | C,8 | x8 | [D,B,]4 B,2- [G,,B,]2 | z4 B,,4[K:treble][K:bass] | %5
 E,-[^G,,E,-][A,,E,]C, G,3- [=G,,G,-] | [E,G,-][_E,G,-][D,G,]E z2 z D | G,,2 z2 z4 |[M:3/4] x6 | %9
 [D,G,]2[K:treble] z2[K:bass] G,,2 | z[K:treble] G- G4- | G4 z2 | x6 | %13
 [D,G,]2[K:treble] z2[K:bass] G,,2 | x[K:treble] x5 | C,4 G2 | x6 | x6 | x6 |[M:4/4] x8 | %20
[M:3/4] .[G,C]2 E4- | [G,-E]4 G,2 | x6 | x6 |] %24
V:4
 x8 | E8- | E z z2 E4 | x8 | x8 | x8 | x8 | x8 |[M:3/4] x6 | x6 | x6 | x6 | x6 | x6 | x6 | x6 | %16
 x6 | x6 | x6 |[M:4/4] x8 |[M:3/4] x6 | x6 | x6 | x6 |] %24
V:5
 x8 | x8 | G2 G6 | F6 z2 | [G,CE]4 ^G,3 ^G | x8 | z4 D2 z2 | .[B,D]2 z2 z4 |[M:3/4] E6 | x6 | %10
 [CE-]6 | E4 z2 | E6 | x6 | [CE-]6 | E4 z2 | [CEG]6 | [CF]6 | [C_E^F]4 z2 |[M:4/4] x8 |[M:3/4] x6 | %21
 x6 | x6 | x6 |] %24
V:6
 x8 | x8 | x8 | x8 | x5[K:treble] x2[K:bass] x | .A,,2 z2 B,,4 | z4 D,4 | x8 |[M:3/4] x6 | %9
 x[K:treble] x3[K:bass] x2 | C,6[K:treble] | C,4 z2 | x6 | x[K:treble] x3[K:bass] x2 | %14
 C,6[K:treble] | x6 | x6 | x6 | x6 |[M:4/4] x8 |[M:3/4] x6 | x6 | x6 | x6 |] %24
V:7
 x8 | x8 | x8 | x8 | x5[K:treble] x2[K:bass] x | x8 | z4 z .D,,3 | x8 |[M:3/4] x6 | %9
 x[K:treble] x3[K:bass] x2 | x[K:treble] x5 | x6 | x6 | x[K:treble] x3[K:bass] x2 | %14
 x[K:treble] x5 | x6 | x6 | x6 | x6 |[M:4/4] x8 |[M:3/4] x6 | x6 | x6 | x6 |] %24

